X:1
T: Rossmore
N:
C:
S:
A:
O:
R:
M:4/4
K:C
I:speed 210
%W: A1
% voice 1 (1 lines, 30 notes)
K:C
M:4/4
L:1/16
c8 e8 |c4 g4 e4 c4 |B8 d8 |B4 d4 c2 B2 A2 G2 |c8 e8 |c4 g4 e4 c4 |f2 e2 d2 c2 B2 c2 d2 B2 |c8 c8 |
%W: A2
% voice 1 (1 lines, 30 notes)
c8 e8 |c4 g4 e4 c4 |B8 d8 |B4 d4 c2 B2 A2 G2 |c8 e8 |c4 g4 e4 c4 |f2 e2 d2 c2 B2 c2 d2 B2 |c8 c8 |
%W: B1
% voice 1 (1 lines, 30 notes)
e6 d2 c2 d2 e2 f2 |g4 g4 g4 a4 |g4 g4 g4 a2 b2 |c'4 g4 g4 a2 b2 |c'2 b2 a2 g2 a2 g2 f2 e2 |d8 G8 |
%W:
% voice 1 (1 lines, 34 notes)
B4 d4 c2 B2 A2 G2 |B4 d4 c2 B2 A2 G2 |B4 d4 c2 B2 A2 G2 |B4 d4 c2 B2 A2 G2 |f2 e2 d2 c2 B2 c2 d2 B2 |c8 c8 |
%W: B2
% voice 1 (1 lines, 30 notes)
e6 d2 c2 d2 e2 f2 |g4 g4 g4 a4 |g4 g4 g4 a2 b2 |c'4 g4 g4 a2 b2 |c'2 b2 a2 g2 a2 g2 f2 e2 |d8 G8 |
%W:
% voice 1 (1 lines, 34 notes)
B4 d4 c2 B2 A2 G2 |B4 d4 c2 B2 A2 G2 |B4 d4 c2 B2 A2 G2 |B4 d4 c2 B2 A2 G2 |f2 e2 d2 c2 B2 c2 d2 B2 |c8 c8 ||
